X: 5462
T: Bunch Of Roses, The
R: jig
M: 6/8
K: Gminor
|:A|B3 Bcd|c2 A ABc|B2 G GAB|A^FD D2 A|
B3 Bcd|c2 A ABc|BAG AG^F|G3 G2:|
|:=e|f2 d d=ef|g2 d dcA|G3 f2 g|afd d2 =e|
fga gf=e|f=ed cBA|GAB AG^F|G3 G2:|

